X: 28371
T: Muineira De Lugo
R: jig
M: 6/8
K: Dmajor
|dc|:A4 dc|A4 dc|ABA GFG|B2 A2 dc|
A4 dc|A4 dc|ABA GFE|1 D4 dc:|2 D3 F2 F||
|:F2 G AGF|E2 C G2 G|G2 A BAG|F2 D F2 F|
F2 G AGF|E3 AGA|FGF EFE|1 D3 F2 F:|2 D4 dc||

